assets/icons/alert-circle.svg

<svg width="25" height="25" viewBox="0 0 25 25" fill="none" xmlns="http://www.w3.org/2000/svg">
<path d="M13.6659 13.6663H11.6659V7.66633H13.6659M13.6659 17.6664H11.6659V15.6663H13.6659M12.6659 2.66632C11.3527 2.66632 10.0523 2.92498 8.83904 3.42753C7.62578 3.93007 6.52341 4.66667 5.59482 5.59526C3.71946 7.47061 2.66589 10.0141 2.66589 12.6663C2.66589 15.3185 3.71946 17.862 5.59482 19.7374C6.52341 20.666 7.62578 21.4026 8.83904 21.9051C10.0523 22.4077 11.3527 22.6663 12.6659 22.6663C15.3181 22.6663 17.8616 21.6127 19.737 19.7374C21.6123 17.862 22.6659 15.3185 22.6659 12.6663C22.6659 11.3531 22.4073 10.0528 21.9047 8.83951C21.4021 7.62625 20.6656 6.52384 19.737 5.59526C18.8084 4.66667 17.706 3.93007 16.4928 3.42753C15.2795 2.92498 13.9791 2.66632 12.6659 2.66632Z" fill="white"/>
</svg>

<svg xmlns="http://www.w3.org/2000/svg" width="25" height="25" fill="none" viewBox="0 0 25 25"><path fill="#fff" d="M13.666 13.666h-2v-6h2m0 10h-2v-2h2m-1-13a10 10 0 1 0 0 20 10 10 0 0 0 0-20"/></svg>
